X: 20544
T: John McKenna's
R: jig
M: 6/8
K: Gmajor
dg|:d2B BAB|dBB BGE|D2B BAB|GBd edg|
d2B BAB|dBB BAB|GAB dGB|GBd edg:|
ed|:g3 a3|bge d3|g3 aba|gef g2a|
bag agf|ged edg|d2B BAB|GBd e2d:|

